X: 3161
Q: "Strathspey."
M: C
L: 1/16
K: F
uC2 |:\
ff3 {fg}a3f g3fec3 | dd3 f3d c3BAF3 |
ff3 {fg}a3f g3fec3 | d3f efga f4 (fa3) ||\
b3ga3f {a}g3fdf3 | dcBA f3A BAGF G3A |\
|:\
(fa3) (fa3) (eg3) c4 | d3ef3d c3B(AF3) |
(3f2g2a2 (3f2g2a2 (3e2f2g2 c3f | d3f efge f4 (fa3) |\
d3bc3a B3gA3f | c3BA3F G3FE3C |\
(3F2G2A2 (3G2A2B2 (3A2B2c2 (3B2c2d2 | c3f agfe gfed cBAG |]


